!!!OTL: 773. Lied einer Schnitterin.
!!!COM: Volksweise
!!!ODT: 1892
!!!ARE: Europa, Mitteleuropa, Deutschland, Westfalen, Waldbroel
!!!SCT: B0773
!!!TXL: @@DE
!!!YEM: Copyright 1995, estate of Helmut Schaffrath.
**kern	**text
*ICvox	*
*Ivox	*
*clefG2	*
*M6/8	*
*k[b-]	*
*F:	*
=1	=1
!LO:TX:a:t=Mäßig.	!
{4a	Laſſ'
8g	dich
4f	ſchnei-
8c	-den,
=2	=2
4cc	laſſ'
8b-	dich
4a	ſchnei-
8f}	-den,
=3	=3
{4g	Ern-
8g	-te
8gL	reif
8ccJ	.
8a	und
=4	=4
4.g	warm!
4r	.
8r}	.
=5	=5
{4a	Sieh,
8b-	ein
4cc	Mäd-
8cc	-chen
=6	=6
4a	vol-
8b-	-ler
4cc	Freu-
8cc}	-den
=7	=7
{4ff	ſam-
8a	-melt
8b-L	dich
8aJ	.
8g	im
=8	=8
4.f	Arm!
4r	.
8r}	.
==	==
!!!AGN: Stande - Lied, Bauern, religioes
!!!GTL: Religioese Lieder
!!!ONB: ESAC (Essen Associative Code) Database: BOEHME
!!!AMT: compound duple
!!!AIN: vox
!!!EED: Helmut Schaffrath
!!!EEV: 1.0
!!Volksweiſe aus Weſtfalen (Kreis Waldbroel) 1892.
!!@@COMMENT:"Gedicht von Joh. Ludwig am Bühl 1780, gedruckt in deſſen "Gedichten". St. Gallen und
!!Leipʒig 1803. S. 66, mit einer Melodie von Walder. Das Jnhaltsregiſter hat daʒu die Jahres-
!!ʒahl 1780 angemerkt. Alſo kein altes Volkslied, wie man es beʒeichnet findet, aber vor 1800 und
!!ſpäter auf fl. Bll. gedruckt, mußte alſo doch geſungen werden. Mit Melodie von K. G. Hering
!!1823 ſteht das Lied bei Erk, "Germania" Nr. 100. Mit anderer Melodie in Köhlers "Sammlung
!!mehrſt. Geſänge". Stuttgart 1829, wiederholt in C. Kochers Bardenhain und Erk, Volksl. JJ. 4/5.
!!Nr. 86. Die hier ſtehende Voklsweiſe verdanke ich Herrn K. Becker in Neuwied. Der Dichter
!!Ludwig am Bühl war geb. ʒu Wattweil in Toggenburg 6. Febr. 1750, k ʒu Allſtetten unweit
!!Rheineck 22. April 1800 als Diſtriktsſtatthalter des Oberrheinthals und Mitglied des Erʒiebungerathes."
!!@@END:
!!!Text: J. Ludwig am Bühl
!!!URL-scan: https://archive.org/details/BoehmeVtLieder1895/page/n617/mode/2up
!!!ENC: Anna Maria Matuszewska
!!!EEV: 2024/19/07
*-	*-
